X: 31682
T: Parting Of The Hare, The
R: jig
M: 6/8
K: Bminor
|:FBB BAF|BAd BAG|Fdd ecc|BcB AFE|
FBB BAF|BAd BAG|dfd edc|1 dBB B2A:|2 dBB B2c||
|:d2f fed|fea fed|afb faa|fgg fga|
d2f fed|fea fed|afb fed|BAF Bcd:|

